X:1
T:Charles Gounod (1818-1893)
T:Gallia
T:Copyright © 2009 by the Choral Public Domain Library (http://www.cpdl.org) Edition may be freely distributed, duplicated, performed, or recorded.
T:Copyright © 2009 by the Choral Public Domain Library (http://www.cpdl.org) Edition may be freely distributed, duplicated, performed, or recorded.
T:Copyright © 2009 by the Choral Public Domain Library (http://www.cpdl.org) Edition may be freely distributed, duplicated, performed, or recorded.
Z:Copyright © 2009 by the Choral Public Domain Library (http://www.cpdl.org)
Z:Edition may be freely distributed, duplicated, performed, or recorded.
%%score { ( 1 2 ) | ( 3 4 ) }
L:1/8
Q:1/4=120
M:4/4
K:G
V:1 treble nm="Staff-5"
V:2 treble 
V:3 bass 
V:4 bass 
V:1
 z2 z3/2 [D,,E]/ [D,,E]4- | [D,,E]3 z/ [D,,E]/ [D,,E]4- | [D,,E]3 z/ [D,,E]/ [D,,E]4- | %3
 [D,,E]2 z3/2 [D,,E]/ [D,,E]4- | [D,,E]3 z/ [D,,E]/ [D,,E]4- | [D,,E]3 z/ [D,,E]/ [D,,E]4 | %6
 z2 z3/2 B,/ B,4 | [F,B,E]4 [F,B,^D]4 | %8
 ([G,B,E]/[B,EG]/)[B,EG]/[B,EG]/ ([B,EG]/[EGB]/)[EGB]/[EGB]/ ([EGB]/[GBe]/)[GBe]/[GBe]/ ([GBe]/[Beg]/)[Beg]/[Beg]/ | %9
 ([Beg]/[GBe]/)[GBe]/[GBe]/ ([GBe]/[EGB]/)[EGB]/[EGB]/ ([EGB]/[B,EG]/)[B,EG]/[B,EG]/ ([B,EG]/[G,B,E]/)[G,B,E]/[G,B,E]/ | %10
 ([G,B,E]/[CEG]/)[CEG]/[CEG]/ ([CEG]/[EGc]/)[EGc]/[EGc]/ ([EGc]/[Gce]/)[Gce]/[Gce]/ ([Gce]/[ceg]/)[ceg]/[ceg]/ | %11
 ([ceg]/[Gce]/)[Gce]/[Gce]/ ([Gce]/[EGc]/)[EGc]/[EGc]/ ([EGc]/[CEG]/)[CEG]/[CEG]/ ([CEG]/[G,CE]/)[G,CE]/[G,CE]/ | %12
 ([A,CF]/[CFA]/)[CFA]/[CFA]/ ([CFA]/[FAc]/)[FAc]/[FAc]/ ([FAc]/[Acf]/)[Acf]/[Acf]/ ([Acf]/[cfa]/)[cfa]/[cfa]/ | %13
 ([cfa]/[Acf]/)[Acf]/[Acf]/ ([Acf]/[FAc]/)[FAc]/[FAc]/ ([CFAc]/[CFA]/)[CFA]/[CFA]/ ([CFA]/[A,CF]/)[A,CF]/[A,CF]/ | %14
 ([B,DF]/[DFB]/)[DFB]/[DFB]/ ([DFB]/[FBd]/)[FBd]/[FBd]/ ([FBd]/[Bdf]/)[Bdf]/[Bdf]/ ([Bdf]/[dfb]/)[dfb]/[dfb]/ | %15
 ([e^gb]/[Beg]/)[Beg]/[Beg]/ ([Beg]/[^GBe]/)[GBe]/[GBe]/ ([GBe]/[EGB]/)[EGB]/[EGB]/ ([EGB]/[B,EG]/)[B,EG]/[B,EG]/ | %16
 ([B,E^G]/[EGB]/)[EGB]/[EGB]/ ([EGB]/[GBe]/)[GBe]/[GBe]/ ([GBe]/[Be^g]/)[Beg]/[Beg]/ ([Beg]/[egb]/)[egb]/[egb]/ | %17
 [eg^a]/[^Aeg]/[Aeg]/[Aeg]/ [Aeg]/[GAe]/[GAe]/[GAe]/ [GAe]/[EGA]/[EGA]/[EGA]/ [EGA]/[^A,EG]/[A,EG]/[A,EG]/ | %18
 ([B,EG]/[EGB]/)[EGB]/[EGB]/ ([EGB]/[GBe]/)[GBe]/[GBe]/ ([GBe]/[EGB]/)[EGB]/[EGB]/ ([EGB]/[B,EG]/)[B,EG]/[B,EG]/ | %19
 ([B,EF]/[EFB]/)[EFB]/[EFB]/ ([EFB]/[B,EF]/)[B,EF]/[B,EF]/ ([B,^DF]/[DFB]/)[DFB]/[DFB]/ ([DFB]/[B,DF]/)[B,DF]/[B,DF]/ | %20
 ([G,B,E]/[EGB]/)[EGB]/[EGB]/ ([EGB]/[CFA]/)[CFA]/[CFA]/ ([CFA]/[B,EG]/)[B,EG]/[B,EG]/ ([B,EG]/[A,^DF]/)[A,DF]/[A,DF]/ | %21
 ([G,B,E]/[EGB]/)[EGB]/[EGB]/ ([EGB]/[CFA]/)[CFA]/[CFA]/ ([CFA]/[B,EG]/)[B,EG]/[B,EG]/ [B,EG]/[A,^DF]/[A,DF]/[A,DF]/ | %22
 ([A,^DF]/[G,B,E]/)[G,B,E]/[G,B,E]/ ([G,B,E]/[A,DF]/)[A,DF]/[A,DF]/ ([A,DF]/[G,B,E]/)[G,B,E]/[G,B,E]/ ([G,B,E]/[A,DF]/)[A,DF]/[A,DF]/ | %23
 [G,B,E]4 [G,B,E]4 | [G,B,E] z ([GB]>[FA]) ([GB]>[FA]) ([GB]>[FA]) | %25
 [GB] [B,GB]2 [B,GB]2 [B,GB]2 [B,GB] | %26
V:2
 z2 z3/2 D,,/ D,,4 | x8 | x8 | x8 | x8 | x8 | [G,E]8 | x8 | x8 | x8 | x8 | x8 | x8 | x8 | x8 | x8 | %16
 x8 | x8 | x8 | x8 | x8 | x8 | x8 | x8 | x8 | x8 | %26
V:3
 E,,8 | [B,,,B,,]8 | [C,,C,]8 | [G,,,G,,]8 | [A,,,A,,]8 | [_B,,,_B,,]8 | [B,,,B,,]8- | %7
 [B,,,B,,]2 z3/2 B,,/ [B,,,B,,]4 | [E,,,,E,,]4- [E,,,,E,,]3 z/ E/ | E6 z2 | [E,,,,E,,]7 z/ E/ | %11
 E4- E z z2 | [E,,E,]7 z/ F/ | F4- F z z2 | [D,,D,]7[K:treble] z/ [B,B]/ | [B,-B]4 B, z z2 | %16
 [C,,C,]7 z/ [E,E]/ | [E,E]4- [E,E] z z2 | [B,,,B,,]3 z/ B,/ B,3 z | [B,,,B,,]7/2 B,,/ B,,4 | %20
 [E,,,,E,,]8 | [E,,,,E,,]8 | B,,2 B,,4 B,,2 | %23
 [E,,E,][E,,E,] z [B,,,B,,] [E,,E,][E,,E,] z [B,,,B,,] | [E,,E,] z z2 z4 | x8 | %26
V:4
 x8 | x8 | x8 | x8 | x8 | x8 | x8 | x8 | x8 | x8 | x8 | x8 | x8 | x8 | x7[K:treble] x | x8 | x8 | %17
 x8 | x8 | x8 | x8 | x8 | E,,4 E,,4 | x8 | x8 | x8 | %26

